!!!!SEGMENT: pl-wtm--iii-41-637-4--001-001_joteyko-tadeusz--sonatine-h-moll-op-19-no-2-i-allegro-moderato.krn
!!!cenid: 19xx:112
!!!COM: Joteyko, Tadeusz
!!!COM-rismID: pe50046072
!!!CDT: 1872-1932
!!!CNT: Polish
!!!OPR: Sonatine h-moll Op. 19 No. 2
!!!OTL: I. Allegro moderato
!!!OMV: 001
!!!PDT:
!!!AGN: Secular; Sonata
!!!YEC: Copyright 2022 Narodowy Instytut Fryderyka Chopina (https://polishscores.org)
!!!YEM: License CC-BY-4.0 (https://creativecommons.org/licenses/by/4.0)
!!!SMS-siglum: PL-Wtm
!!!SMS-shelfmark: III.41.637-4
!!!SMS-variant:
!!!SMS-altvar:
!!!SMS-shelfwork: 001-001 M
!!!NIFC-rismSourceID: 1001141267
!!!NIFC-rismChildID: 1001141267
!!!NIFC-islandoraID: pl-wtm:20276
!!!URL-pdf-islandora: https://repozytorium.nifc.pl/islandora/object/pl-wtm%3A20276/datastream/PDF/view
!!!URL-scan: https://polish.musicsources.pl/pl/lokalizacje/galeria/druki-muzyczne/17524/2 @EN{Scan on Polish Music Sources Website} @PL{Skany w portalu Dziedzictwo Muzyki Polskiej w otwartym dostępie}
!!!IIIF:
!!!ONB-nifc: UWAGA: części Sonatiny: I. Allegro moderato, II. Ballade, III. Rondo alla Mazurka
!!!AIN: 1 piano
!!!key: b
**kern	**fing	**kern	**fing	**dynam
*part1	*part1	*part1	*part1	*part1
*staff2	*	*staff1	*	*
*I"PIANO.	*	*I"PIANO.	*	*
*I'[pf]	*	*I'[pf]	*	*
*ICklav	*	*ICklav	*	*
*Ipiano	*	*Ipiano	*	*
*clefF4	*	*clefG2	*	*
*k[f#c#]	*	*k[f#c#]	*	*
*b:	*	*b:	*	*
*M4/4	*	*M4/4	*	*
=1	=1	=1	=1	=1
*	*below	*	*above	*
2r	.	(4B/	1	p
.	.	4c#/	2	.
(4BB/	5	4d/	1	.
4C#/	4	8.e/L	2	.
.	.	16g/Jk	4	.
=2	=2	=2	=2	=2
4D\	3	4f#/	3	.
8.E\L	2	4c#/	1	.
16G\Jk	1	.	.	.
8F#\)	2	8d/)	2	.
8r	.	8r	.	.
(4C#/	5	(>4e/ 4b	1 5	.
=3	=3	=3	=3	=3
*	*	*^	*	*
4F#\	3	4a/	8e\L	2 5	.
.	.	.	8d\J	1	.
8.G\L	2	4c#/ 4e	4ryy	2 3	.
16A\Jk	1	.	.	.	.
8D\)	5	8d/) 8f#	2r	1 4	.
8r	.	8r	.	.	.
(4B\	3	(4f#/ 4dd	.	1 4	<
=4	=4	=4	=4	=4	=4
8A#X\L	4	4f#/ 4cc#	4ryy	1 3	.
8e\	.	.	.	.	.
8d\	2	8.b/L	4f#\	1 2	.
8B\J	3	.	.	.	.
.	.	16dd/Jk	.	4	[
4F#\	5	4f#^\) 4a#X 4ff#	2ryy	5	.
8G#X\L	3	4r	.	.	.
8A#\J	2	.	.	.	.
!!LO:LB:g=original	!	!	!	!	!
=5	=5	=5	=5	=5	=5
2.B\)	1	(4b/	8d\L	.	mf
.	.	.	8f#\	.	.
.	.	4cc#/	8e\	.	.
.	.	.	8f#\J	.	.
.	.	4dd/	8f#\L	.	.
.	.	.	8b\	.	.
(4c#\	2	8.ee/L	8b\	4	.
.	.	.	8g\J	.	.
.	.	16gg/Jk	.	5	.
=6	=6	=6	=6	=6	=6
4d\	1	4ff#/)	8b\L	2 4	.
.	.	.	8f#\	.	.
4c#\	.	8.ee/L	8b\	2 4	.
.	.	.	8g\J	.	.
.	.	16gg/Jk	.	.	.
4d\	.	4ff#/	8b\L	.	.
.	.	.	8f#\	.	.
4F#\	5	(4aa/	8dd\	2 5	.
.	.	.	8a\J	.	.
=7	=7	=7	=7	=7	=7
4e\	1	4gg/	8cc#\L	5	.
.	.	.	8a\	.	.
4d\	2	4ff#/	8cc#\	4	.
.	.	.	8b\J	.	.
4c#\	3	4ee/)	(8b\	3	.
.	.	.	4a\)	.	.
4B\	4	(8.dd/L	.	3	.
.	.	.	[8g#X\	.	.
.	.	16ff#/Jk	.	.	.
=8	=8	=8	=8	=8	=8
4c#\	1	4ee#X/)	8g#\L]	.	.
.	.	.	8cc#\	.	.
4F#\	2	(8.dd/L	8b\	.	.
.	.	.	8f#\J	.	.
.	.	16ff#/Jk	.	.	.
4C#/	5	4ee#/	8b\L	.	.
.	.	.	8cc#\	.	.
4D\	4	4bb/)	8b\	.	.
.	.	.	8ff#\J	.	.
!!LO:LB:g=original	!	!	!	!	!
=9	=9	=9	=9	=9	=9
4C#/	5	(4bb^/	8b\L	.	.
.	.	.	8eenX\	2	.
4c#\	.	4aa/)	8a\	.	.
.	.	.	8ee\J	3	.
4BB/	.	(4aa^/	8a\L	.	.
.	.	.	8dd\	2	.
4B\	.	4gg/)	8g\	.	.
.	.	.	8dd\J	3	.
=10	=10	=10	=10	=10	=10
!	!	!	!	!	!LO:HP:a
4AA/	.	(4gg^/	8g\L	.	>
.	.	.	8cc#\	.	.
4A\	.	4ff#/)	8f#\	.	.
.	.	.	8cc#\J	.	.
4GG/	.	(4ff#^/	8f#\L	.	.
.	.	.	8b\	2	.
4G\	.	4ee/)	8e\	.	]
.	.	.	8b\J	3	.
*	*	*v	*v	*	*
=11	=11	=11	=11	=11
8FF#/)	.	16f#\LL	.	p
.	.	16ff#\	.	.
8r	.	16g\	.	.
.	.	16ff#\JJ	.	.
(4f#\	1	16g#X\LL	.	.
.	.	16ff#\	.	.
.	.	16a\	.	.
.	.	16ff#\JJ	.	.
8e\L	2	16a#X\LL	2	<
.	.	16ff#\	.	.
8d#X\	3	16b\	1	.
.	.	16ff#\JJ	.	.
8dn\	1	16b#X\LL	2	.
.	.	16ff#\	.	.
8c#\J	2	16cc#\	3	.
.	.	16ff#\JJ	.	[
=12	=12	=12	=12	=12
4B\)	3	16dd\LL	1	.
.	.	16ff#\	2	.
.	.	16bb\	4	.
.	.	16ddd\JJ	5	.
4r	.	16ccc#\LL	4	.
.	.	16bb\	.	.
.	.	16aa\	.	.
.	.	16gg\JJ	1	.
2r	.	16ff#\LL	3	>
.	.	16ee\	.	.
.	.	16dd\	.	.
.	.	16cc#\JJ	2	.
.	.	16dd\LL	1	.
.	.	16ee\	.	.
.	.	16ff#\	.	.
.	.	16gg\JJ	4	]
!!LO:LB:g=original	!	!	!	!
=13	=13	=13	=13	=13
8A\ 8c#	.	16aa\LL	5	p
.	.	16a\	.	.
8r	.	16b\	.	.
.	.	16cc#\JJ	.	.
(4a^\	1	16b\LL	.	.
.	.	16aa\	.	.
.	.	16b#X\	.	.
.	.	16aa\JJ	.	.
8g\L	2	16cc#\LL	2	.
.	.	16aa\	.	<
8f#\	3	16dd\	1	.
.	.	16aa\JJ	.	.
8fn\	1	16dd#X\LL	2	.
.	.	16aa\	.	.
8e\J	2	16ee\	1	.
.	.	16aa\JJ	4	.
=14	=14	=14	=14	=14
4d\)	3	16ff#\LL	2	.
.	.	16aa\	1	.
.	.	16ddd\	2	[
.	.	16fff#\JJ	4	.
4r	.	16eee\LL	3	.
.	.	16ddd\	1	.
.	.	16ccc#\	4	.
.	.	16bb\JJ	.	.
2r	.	16aa\LL	.	.
.	.	16gg\	1	>
.	.	16ff#\	3	.
.	.	16ee\JJ	2	.
.	.	16dd\LL	1	.
.	.	16cc#\	3	.
.	.	16b\	2	.
.	.	16cc#\JJ	3	]
=15	=15	=15	=15	=15
!	!	!LO:TX:b:i:t=rit.	!	!
8A\L	.	(4a/	1	.
8g#X\	.	.	.	.
8A\	.	4b\	2	.
8gn\J	.	.	.	.
8A\L	.	4cc#\	3	.
8f#\	.	.	.	.
8A\	.	8.dd\L	1	.
8e\J	.	.	.	.
.	.	16ee\Jk	2	.
=16	=16	=16	=16	=16
!	!	!LO:TX:i:b:t=molto espressivo\na tempo	!	!
8D\L	.	4ff#\	3	p
8d\	.	.	.	.
8D\	.	4ff#\	2	.
8c#\J	.	.	.	.
8D\L	.	8gg\L	1	.
8B\	.	8aa\	.	.
8D\	.	8bb\	3	.
8A\J	.	8ccc#\J	4	.
!!LO:LB:g=original	!	!	!	!
=17	=17	=17	=17	=17
8D\L	5	4ddd\	5	.
8G\	2	.	.	.
8F#\	.	4aa\)	3	.
8E\J	.	.	.	.
8D\L	.	8r	.	.
8A\	.	(8ff#\L	2	.
8G\	.	8.bb\	5	.
8F#\J	.	.	.	.
.	.	16aa\Jk	.	.
=18	=18	=18	=18	=18
8E\L	4	4gg\	3	.
8d\	1	.	.	.
8c#\	.	4ee\)	1	.
8B\J	.	.	.	.
8A\L	4	8r	.	.
8g\	1	(8ee\L	2	.
8f#\	.	8.aa\	5	.
8e\J	3	.	.	.
.	.	16gg\Jk	.	.
=19	=19	=19	=19	=19
8d\L	1	4ff#\	3	.
8c#\	.	.	.	.
8B\	.	4dd\)	1	<
8A\J	4	.	.	.
8B-X\L	2	(8gg\L	1	.
8A\	3	8aa\	.	.
8G\	4	8bb-X\	.	.
8Fn\J	5	8cccn\J	4	[
*clefG2	*	*	*	*
=20	=20	=20	=20	=20
8B-X/L	.	4ddd\	5	.
8b-X/	.	.	.	.
8B-/	.	8.bb-X\L	2	.
8a/J	.	.	.	.
.	.	16ddd\Jk	4	.
8B-/L	.	8fffn\L	5	.
8g/	.	8eee-X\	4	.
8B-/	.	8cccn\	2	.
8g-X/J	.	8aa\J	1	.
!!LO:PB:g=original	!	!	!	!
=21	=21	=21	=21	=21
8B-X/L	.	4ddd\)	4	.
8fn/	.	.	.	.
8en/	.	(8.bb-X\L	2	.
8f/J	.	.	.	.
.	.	16ddd\Jk	4	.
8A/L	.	8ddd\L	5	.
8e/	1	8ccc#X\	4	.
!	!	!LO:SIC:s=8bb-X:t=bemol w nawiasie	!	!
8d/	2	8bb-X\	2	.
8c#X/J	3	8gg\J	1	.
*clefF4	*	*	*	*
=22	=22	=22	=22	=22
8d\L	1	2ff#X\	3	>
8D\	5	.	.	.
8E\	.	.	.	.
8G\J	.	.	.	.
8G#X\L	2	4ee\	2	.
8E\	4	.	.	.
8F#\	3	8dd\L	1	.
8G#\J	2	8bn\J)	2	]
=23	=23	=23	=23	=23
8A\L	5	(4a/	1	.
8g#X\	.	.	.	.
8A\	.	4b\	2	.
8gn\J	.	.	.	.
!	!	!LO:TX:b:i:t=rit.	!	!
8A\L	.	4cc#\	3	.
8f#\	.	.	.	.
!	!	!LO:TUP:a:r=8	!	!
8A\	.	24dd\LL	4	.
.	.	24a\	.	.
.	.	24b\	.	.
!	!	!LO:TUP:a:r=8	!	!
8e\J	.	24cc#\	.	.
.	.	24dd\	1	.
.	.	24ee\JJ	2	.
=24	=24	=24	=24	=24
*	*	*^	*	*
!	!	!LO:TX:b:i:t=a tempo	!	!	!
4D\	5	4ff#/	8ff#\L	3	p
.	.	.	8ee\	.	.
8B\L	2	4ff#/	8dd\	1 3	<
8A\J	3	.	8cc#\J	2	.
8G\L	1	8gg/L	8b\L	1 4	.
8F#\	2	8aa/	8cc#\J	1 5	.
8E\	3	8bb/	4gg\	1 3	.
8E-X\J	4	8ccc#/J	.	4	[
*	*	*v	*v	*	*
!!LO:LB:g=original	!	!	!	!
=25	=25	=25	=25	=25
8D\L	5	4ff#\ 4ddd	1 5	.
8En\	4	.	.	.
8F#\	.	4aa\)	2	.
8A\J	.	.	.	.
8G\L	2	16r	.	<
.	.	(16ee\LL	4	.
8A\	.	16dd\	.	.
.	.	16cc#\JJ	.	.
8F#\	3	16dd\LL	1	.
.	.	16ff#\	2	.
8A\J	.	16bb\	5	.
.	.	16aa\JJ	.	[
=26	=26	=26	=26	=26
8E\L	5	4gg\	.	>
8d\	1	.	.	.
8c#\	.	4ee\)	.	]
8B\J	.	.	.	.
8A\L	4	16r	.	.
.	.	(16b\LL	2	<
8g\	1	16cc#\	3	.
.	.	16dd\JJ	1	.
8f#\	.	16ee\LL	2	.
.	.	16ff#\	3	.
8e\J	3	16aa\	5	.
.	.	16gg\JJ	4	[
=27	=27	=27	=27	=27
8d\L	1	4ff#\	3	>
8c#\	.	.	.	.
8B\	.	4dd\)	1	]
8A\J	4	.	.	.
8B-X\L	2	(8gg\L	1	<
8A\	1	8aa\	.	.
8G\	2	8bb-X\	.	.
8Fn\J	1	8cccn\J	4	.
=28	=28	=28	=28	=28
8BB-X/L	4	4ddd\	5	[
8Cn/	.	.	.	.
8D/	2	8.bb-X\L	2	.
8Fn/J	1	.	.	.
.	.	16ddd\Jk	4	.
8G\L	3	8fffn\L	5	.
8A\	2	8eee-X\	.	.
8cn\	1	8cccn\	.	.
8e-X\J	2	8aa\J	1	.
!!LO:LB:g=original	!	!	!	!
=29	=29	=29	=29	=29
8B-X\L	5	4ddd\)	4	.
8fn\	.	.	.	.
8en\	.	(8.bb-X\L	2	.
8f\J	.	.	.	.
.	.	16ddd\Jk	4	.
8A\L	.	8ddd\L	5	.
8e\	.	8ccc#X\	.	.
8d\	.	8bb-\	.	.
8c#X\J	3	8gg\J	1	.
=30	=30	=30	=30	=30
*	*	*^	*	*
8d\L	1	4.ff#X/)	8ff#X\L	3	>
8c#\	.	.	8ee\	2	.
8Bn\	3	.	8dd\	1	.
8A\J	4	(8ff#/	8cc#\J	2 3	.
4G\	5	8aa/L	4b\	1 5	.
.	.	8gg/	.	.	.
4A\	.	8ff#/	4cc#\	3	.
.	.	8ee/J)	.	.	.
*	*	*v	*v	*	*
=31	=31	=31	=31	=31
(4d\	1	((2g\ 2ee	1 5	]]
4A\	2	.	.	.
4D\)	5	4f#\)) 4dd	1 4	.
4r	.	4r	.	.
=32	=32	=32	=32	=32
4BB-X\ 4Fn	1 3	4B-X/ 4d	1 3	mf
8.BB-\L 8.F	.	8.B-/L 8.d	.	.
16BB-\Jk 16F	.	16B-/Jk 16d	.	.
4AA\ 4F	4	4c#/ 4fn	2 5	.
4r	.	4r	.	.
=33	=33	=33	=33	=33
4AA\ 4G	.	4A/ 4c#X	1 3	.
8.AA\L 8.G	.	8.A/L 8.c#	.	.
16AA\Jk 16G	.	16A/Jk 16c#	.	.
2D\ 2F#X	.	2A/ 2d	1 4	.
!!LO:LB:g=original	!	!	!	!
=34	=34	=34	=34	=34
4BB-X\ 4Fn	.	4B-X/ 4d	3 5	<
8.BB-\L 8.F	.	8.A-X/L 8.d	.	.
16BB-\Jk 16F	.	16A-/Jk 16d	.	.
4BBn\ 4F	.	4G/ 4g	.	[
4r	.	4r	.	.
=35	=35	=35	=35	=35
4Cn\ 4Fn	.	4cn/ 4a	.	.
8.C\L 8.E	.	8.B-X/L 8.g	.	.
16C\Jk 16E	.	16B-/Jk 16g	.	.
2FFn/ 2Fn	.	2A/ 2fn	.	.
*clefG2	*	*	*	*
=36	=36	=36	=36	=36
4B-X/ 4fn	3	4b-X\ 4dd	1 3	pp
8.B-/L 8.f	.	8.b-\L 8.dd	.	.
16B-/Jk 16f	.	16b-\Jk 16dd	.	.
4A/ 4f	4	4ccn\ 4ffn	.	.
4r	.	4r	.	.
=37	=37	=37	=37	=37
4A/ 4g	.	4a\ 4cc#X	.	.
!LO:N:vis=8	!	!	!	!
8.A/L 8.g	.	8.a\L 8.cc#	.	.
16A/Jk 16g	.	16a\Jk 16cc#	.	.
2d/ 2f#X	2 3	2a\ 2dd	.	.
=38	=38	=38	=38	=38
4B/ 4f#	3	4b\ 4dd	1 3	<
8.B/L 8.f#	.	8.b\L 8.dd	.	.
16B/Jk 16f#	.	16b\Jk 16dd	.	.
4A#X/ 4f#	4	4cc#\ 4ff#	2 5	.
4r	.	4r	.	[[
=39	=39	=39	=39	=39
4An/ 4f#	.	4a\ 4dd 4aa	.	>
8.A/L 8.g	.	8.a\L 8.cc# 8.ff#	4	.
16A/Jk 16g	.	16a\Jk 16cc# 16ee	3	.
2d/ 2f#	2 3	2a\ 2dd	1 2	]]
*clefF4	*	*	*	*
!!LO:LB:g=original	!	!	!	!
=40	=40	=40	=40	=40
!	!	!	!	!
(4D\	5	8r	.	.
.	.	8d/L	.	pp
!LO:TX:i:b:t=marcato	!	!	!	!
4E\	4	8d/	.	.
.	.	8d/J	.	.
4Fn\	3	8d/L	.	.
.	.	8d/	.	.
8.G\L	2	8d/ 8e	.	.
.	.	8d/J 8e	.	.
16B-X\Jk	1	.	.	.
=41	=41	=41	=41	=41
*	*	*^	*	*
4A\)	2	(4fn/	8d\L	2	.
.	.	.	8d\J	.	.
(4G\ 4B-X	1 3	4g/	8r	3	<
.	.	.	8d\	.	.
4Fn\ 4A	2 4	4a/	8r	4	.
.	.	.	8d\	.	.
4E\) 4G	3 5	8.b-X/L	8r	3	.
.	.	.	8d\	.	.
.	.	16dd/Jk	.	5	[
*	*	*v	*v	*	*
=42	=42	=42	=42	=42
(4A\	5	(8cc#\L)	4	.
.	.	8a\	.	.
4Bn\	.	8aa\	.	.
.	.	8gg\J	.	.
4c#\	.	8ffn\L	.	.
.	.	8ee\J)	.	.
8.d\L	2	16gg\LL	4	.
.	.	16ff\	.	.
.	.	16ee\	.	.
16fn\Jk	1	16dd\JJ	1	.
=43	=43	=43	=43	=43
4e\)	2	16cc#\LL	3	.
.	.	16a\	1	.
.	.	16b\	.	.
.	.	16cc#\JJ	.	.
4r	.	16dd\LL	1	.
.	.	16ee\	.	.
.	.	16ffn\	3	.
.	.	16gg\JJ	1	.
(8fn\L	1	16aa\LL	2	.
.	.	16bb-X\	3	.
8Fn\	5	16aa\	.	.
.	.	16gg\JJ	.	.
8G\	.	16ff\LL	3	.
.	.	16ee\	2	.
8A\J)	.	16dd\	1	.
.	.	16cc#\JJ	2	.
*clefG2	*	*	*	*
!!LO:LB:g=original	!	!	!	!
=44	=44	=44	=44	=44
(>4B-X/	4	16dd\LL	3	mf
.	.	16fn\	.	.
.	.	16ffn\	.	.
.	.	16f\JJ	.	.
4cn/	4	16ee-X\LL	4	.
.	.	16f\	.	.
.	.	16ff\	.	.
.	.	16f\JJ	.	.
4d/	3	16b-X\LL	3	.
.	.	16ccn\	.	.
.	.	16b-\	.	.
.	.	16a\JJ	.	.
8.e-X/L	2	16g\LL	1	.
.	.	16gg\	5	.
.	.	16ff\	3	.
16g/Jk	1	16ee-\JJ	2	.
=45	=45	=45	=45	=45
*	*	*^	*	*
4fn/)	3	16dd\LL	4dd/	1	.
.	.	16bb-X\	.	4	.
.	.	16aa\	.	.	.
.	.	16bb-\JJ	.	.	.
(>4g/	2	16cc#X\LL	4cc#/	.	.
.	.	16aa\	.	.	.
.	.	16gg#X\	.	.	.
.	.	16aa\JJ	.	.	.
4a/	1	16ccn\LL	4cc/	.	.
.	.	16aa\	.	.	.
.	.	16ggn\	.	.	.
.	.	16ff#X\JJ	.	.	.
4c#X/	4	16b-X\LL	4b-/	.	.
.	.	16gg\	.	.	.
.	.	16ffn\	.	.	.
.	.	16ee\JJ	.	.	.
=46	=46	=46	=46	=46	=46
4d/)	3	16ffn\LL	4ff/	5	.
.	.	16dd\	.	3	.
.	.	16cc#X\	.	.	.
.	.	16dd\JJ	.	.	.
*clefF4	*	*	*	*	*
(4G\	3	16ff\LL	4ff/	5	.
.	.	16dd\	.	3	.
.	.	16ccn\	.	.	.
.	.	16bn\JJ	.	.	.
4cn\	1	16ee\LL	4ee/	5	.
.	.	16cc\	.	.	.
.	.	16b\	.	.	.
.	.	16cc\JJ	.	.	.
4Fn\	4	16ee-X\LL	4ee-/	5	.
.	.	16cc\	.	.	.
.	.	16b-X\	.	.	.
.	.	16a\JJ	.	.	.
!!LO:PB:g=original	!	!	!	!	!
=47	=47	=47	=47	=47	=47
4B-X\)	2	16dd\LL	4dd/	5	>
.	.	16b-X\	.	.	.
.	.	16a\	.	.	.
.	.	16b-\JJ	.	.	.
(4E\	3	16cc#X\LL	4cc#/	4	.
.	.	16b-\	.	.	.
.	.	16a\	.	.	.
.	.	16g\JJ	.	.	.
4F#X\	2	16ccn\LL	4cc/	5	.
.	.	16a\	.	.	.
.	.	16g\	.	.	.
.	.	16a\JJ	.	.	.
4D#X\)	4	16bn\LL	4b/	4	.
.	.	16a\	.	2	.
.	.	16g\	.	1	.
.	.	16f#X\JJ	.	2	]]
*	*	*v	*v	*	*
=48	=48	=48	=48	=48
16E\LL	5	(4e/	1	p
16B\	.	.	.	.
16G\	.	.	.	.
16B\JJ	.	.	.	.
16E\LL	.	4f#/	2	.
16B\	.	.	.	.
16A\	.	.	.	.
16B\JJ	.	.	.	.
16E\LL	.	4g/	1	.
16B\	.	.	.	.
16G\	.	.	.	.
16B\JJ	.	.	.	.
16E\LL	5	8.a\L	2	.
16A\	.	.	.	.
16F#\	4	.	.	.
16A\JJ	.	16ccn\Jk	4	.
=49	=49	=49	=49	=49
16E\LL	5	8b\)	3	<
16F#\	.	.	.	.
16G\	.	8r	.	.
16A\JJ	2	.	.	.
16B\LL	1	8dd#X\ 8aa	2 5	.
16c#X\	.	.	.	.
16d#X\	.	8r	.	[
16e\JJ	1	.	.	.
16f#\LL	3	8a\ 8dd#	1 3	>
16g\	2	.	.	.
16f#\	3	8r	.	.
16e\JJ	1	.	.	.
16d#\LL	2	4r	.	.
16cn\	1	.	.	.
16B\	3	.	.	.
16A\JJ	4	.	.	]]
!!LO:LB:g=original	!	!	!	!
=50	=50	=50	=50	=50
16G\LL	5	(4g/	1	p
16d\	.	.	.	.
16B\	.	.	.	.
16d\JJ	.	.	.	.
16G\LL	.	4a/	2	.
16d\	.	.	.	.
16cn\	.	.	.	.
16d\JJ	.	.	.	.
16G\LL	.	4b\	1	.
16d\	.	.	.	.
16B\	.	.	.	.
16d\JJ	.	.	.	.
16G\LL	5	8.ccn\L	2	.
16c\	.	.	.	.
16A\	4	.	.	.
16c\JJ	.	16ee\Jk	4	.
=51	=51	=51	=51	=51
16G\LL	5	8dd\)	3	<
16A\	.	.	.	.
16B\	.	8r	.	.
16cn\JJ	2	.	.	.
16d/LL	1	8ff#\ 8cccn	2 5	[
16e/	3	.	.	.
16f#>\	.	8r	.	.
16g>\JJ	.	.	.	.
*	*above	*	*	*
16a>\LL	3	8ccn/ 8ff#	1 3	>
16b>\	.	.	.	.
16a>\	.	8r	.	.
16g>\JJ	1	.	.	.
16f#>\LL	2	4r	.	.
16e>\	1	.	.	.
16d>\	2	.	.	.
16cn>\JJ	3	.	.	]]
=52	=52	=52	=52	=52
*	*below	*	*	*
16B\LL	4	(4b\	1	p
16f#\	.	.	.	.
16d\	.	.	.	.
16f#\JJ	.	.	.	.
16A#X\LL	4	4cc#X\	2	.
16f#\	.	.	.	.
16c#X\	.	.	.	.
16f#\JJ	.	.	.	.
16An\LL	5	4dd#X\	3	<
16f#\	.	.	.	.
16B\	4	.	.	.
16f#\JJ	.	.	.	.
16G\LL	5	8.ee\L	1	.
16e\	.	.	.	.
16B\	3	.	.	.
16e\JJ	.	16gg\Jk	2	[
!!LO:LB:g=original	!	!	!	!
=53	=53	=53	=53	=53
16F#\LL	5	2.bb\)	4	.
16d\	.	.	.	.
16B\	2	.	.	.
16d\JJ	.	.	.	.
16Fn\LL	.	.	.	.
16d\	.	.	.	.
16B\	.	.	.	.
16d\JJ	.	.	.	.
16E\LL	.	.	.	.
16c#\	.	.	.	.
16B\	.	.	.	.
16c#\JJ	.	.	.	.
16E\LL	.	8.ff#\L	.	.
16c#\	.	.	.	.
16A#X\	.	.	.	.
16c#\JJ	.	16ff#\Jk	.	.
=54	=54	=54	=54	=54
16D#X\LL	5	4aa\	5	.
16cn\	.	.	.	.
16An\	.	.	.	.
16c\JJ	.	.	.	.
16Dn\LL	.	8.ee\L	.	.
16B\	.	.	.	.
16G#X\	.	.	.	.
16B\JJ	.	16ee\Jk	.	.
16Cn\LL	.	4gg\	.	.
16B\	.	.	.	.
16Gn\	.	.	.	.
16B\JJ	.	.	.	.
16C\LL	.	8.dd\L	.	.
16A\	.	.	.	.
16Fn\	.	.	.	.
16A\JJ	.	16dd\Jk	.	.
=55	=55	=55	=55	=55
16BB\LL	.	4ffn\	.	.
16A\	.	.	.	.
16Fn\	.	.	.	.
16A\JJ	.	.	.	.
16BB-X\LL	.	8.ccn\L	.	.
16G\	.	.	.	.
16E\	.	.	.	.
16G\JJ	.	16cc\Jk	.	.
16AA/LL	5	4ee\	.	.
16BBn/	.	.	.	.
16C#X/	.	.	.	.
16D/JJ	2	.	.	.
16E\LL	1	8.cc#X\L	.	.
16F#X\	3	.	.	.
16G\	2	.	.	.
16E\JJ	4	16cc#\Jk	.	.
!!LO:LB:g=original	!	!	!	!
=56	=56	=56	=56	=56
*^	*	*^	*	*
2D/	4D\	1	4dd^/	16dd\LL	5	f
.	.	.	.	16a\	.	.
.	.	.	.	16f#\	.	.
.	.	.	.	16a\JJ	.	.
.	4C#\	2	4ee/	16ee\LL	5	.
.	.	.	.	16b-X\	.	.
.	.	.	.	16g\	.	.
.	.	.	.	16b-\JJ	.	.
4D/	4Cn\	1 2	4ff#^/	(>16ff#\LL	5	.
.	.	.	.	16dd\	.	.
.	.	.	.	16a\	.	.
.	.	.	.	16dd\JJ	.	.
8.BB/L 8.D	4ryy	1 3	8.gg^/L	16gg\LL	5	.
.	.	.	.	16dd\	.	.
.	.	.	.	16b-\	.	.
16GG/Jk 16D	.	.	16bb^/Jk	16bb\JJ	5	.
*v	*v	*	*	*	*	*
*	*	*v	*v	*	*
=57	=57	=57	=57	=57
(4DD^>/ 4AA 4D	.	16aa\LL)	4	.
.	.	16ff#\	2	.
.	.	16dd\	.	.
.	.	16ff#\JJ	4	.
4E^\	4	16gg\LL	5	.
.	.	16ee\	3	.
.	.	16cc#\	2	.
.	.	16a\JJ	1	.
4F#^\	3	16ff#\LL	4	.
.	.	16dd\	.	.
.	.	16a\	.	.
.	.	16dd\JJ	4	.
!LO:N:vis=8	!	!	!	!
8.G^\L	2	16ee/LL	5	.
.	.	16b/	3	.
.	.	16g/	.	.
16B^\Jk	1	16e/JJ	.	.
=58	=58	=58	=58	=58
2A^\)	2	16f#/LL	2	.
.	.	16g/	1	.
.	.	16a/	.	.
.	.	16b/JJ	.	.
.	.	16cc#\LL	4	.
.	.	16dd\	1	.
.	.	16ee\	2	.
.	.	16ff#\JJ	3	.
4AA/	5	16gg\LL	4	.
.	.	16aa\	5	.
.	.	16gg\	.	.
.	.	16ff#\JJ	.	.
4BB/	4	16ee\LL	2	.
.	.	16dd\	1	.
.	.	16cc#\	2	.
.	.	16b\JJ	1	.
!!LO:LB:g=original	!	!	!	!
=59	=59	=59	=59	=59
*	*	*^	*	*
4C#/	3	4a^/	16a\LL	4	.
.	.	.	16e\	.	.
.	.	.	16f#\	.	.
.	.	.	16g\JJ	.	.
4D\	2	4b^/	16b\LL	5	.
.	.	.	16f#\	.	.
.	.	.	16d\	.	.
.	.	.	16f#\JJ	.	.
4E\	1	4cc#^/	16cc#\LL	.	.
.	.	.	16a\	.	.
.	.	.	16g\	.	.
.	.	.	16a\JJ	.	.
4F#\	3	8.dd^/L	16dd\LL	5	.
.	.	.	16a\	.	.
.	.	.	16f#\	.	.
.	.	16ff#^/Jk	16ff#\JJ	.	.
=60	=60	=60	=60	=60	=60
4A\	1	4ee/	16ee\LL	4	.
.	.	.	16cc#\	.	.
.	.	.	16a\	.	.
.	.	.	16cc#\JJ	.	.
4D\	5	8.dd/L	16dd\LL	.	.
.	.	.	16a\	.	.
.	.	.	16f#\	.	.
.	.	16ff#/Jk	16ff#\JJ	.	.
4A\	2	4ee^/	16ee\LL	.	.
.	.	.	16cc#\	.	.
.	.	.	16a\	.	.
.	.	.	16cc#\JJ	.	.
4B\	1	8.dd/L	16dd\LL	5	.
.	.	.	16b\	.	.
.	.	.	16f#\	.	.
.	.	16dd/Jk	16dd\JJ	.	.
=61	=61	=61	=61	=61	=61
4F#\	2	4cc#^/	16cc#\LL	4	.
.	.	.	16a#X\	.	.
.	.	.	16f#\	.	.
.	.	.	16a#\JJ	.	.
4BB/	5	8.b/L	16b\LL	.	.
.	.	.	16f#\	.	.
.	.	.	16d\	.	.
.	.	16dd/Jk	16dd\JJ	.	.
4F#\	2	4cc#^/	16cc#\LL	.	.
.	.	.	16a#\	.	.
.	.	.	16f#\	.	.
.	.	.	16a#\JJ	.	.
4r	.	4b^/	16b\LL	.	.
.	.	.	16g\	.	.
.	.	.	16e\	.	.
.	.	.	16g\JJ	.	.
!!LO:LB:g=original	!	!	!	!	!
=62	=62	=62	=62	=62	=62
1r	.	4a#X^/	16a#\LL	.	.
.	.	.	16g\	.	.
.	.	.	16e\	.	.
.	.	.	16f#\JJ	.	.
.	.	4g^/	16g\LL	.	.
.	.	.	16e\	.	.
.	.	.	16c#\	.	.
.	.	.	16d\JJ	.	.
.	.	4f#^/	16f#\LL	.	.
.	.	.	16e\	.	.
.	.	.	16c#\	.	.
.	.	.	16d\JJ	.	.
.	.	4e^/	16e\LL	.	.
.	.	.	16c#\	.	.
.	.	.	16A#X\	.	.
.	.	.	16B\JJ	.	.
*	*	*clefF4	*	*	*
=63	=63	=63	=63	=63	=63
1r	.	4c#^/	16c#\LL	5	>
.	.	.	16A#X\	3	.
.	.	.	16F#\	1	.
.	.	.	16G\JJ	2	.
.	.	4B^/	16B\LL	5	.
.	.	.	16G\	.	.
.	.	.	16E\	.	.
.	.	.	16F#\JJ	.	.
.	.	4A#X^/	16A#\LL	.	.
.	.	.	16G\	.	.
.	.	.	16E\	.	.
.	.	.	16F#\JJ	.	.
.	.	4G^/	16G\LL	.	.
.	.	.	16E\	.	.
.	.	.	16C#\	.	.
.	.	.	16D\JJ	.	]
=64	=64	=64	=64	=64	=64
*	*	*^	*	*	*
!	!	!LO:TUP:a:problem:klamra kwadratowa	!	!	!	!
4r	.	(<12F#/L	4ryy	8r	4	.
.	.	12E/	.	.	.	.
.	.	.	.	8ryy	.	.
.	.	12C#/J	.	.	.	.
!	!	!LO:TUP:a	!	!	!	!
8AA#X/yy	.	12r	(<8AA#X</)	4ryy	.	.
!	!	!	!	!	!	!
.	.	12C#\L	.	.	.	.
8r	.	.	8ryy	.	.	.
.	.	12E\J)	.	.	.	.
!	!	!LO:TUP:a:problem:klamra kwadratowa	!	!	!	!
4r	.	(<12F#/L	4ryy	2ryy	.	.
.	.	12D#X\	.	.	.	.
.	.	12BB#X\J	.	.	.	.
8AAn/yy	.	12r	(<8AAn</)	.	.	.
.	.	12BB#/L	.	.	.	.
8r	.	.	8ryy	.	.	.
.	.	12D#/J)	.	.	.	.
*	*	*v	*v	*	*	*
*	*	*v	*v	*	*
!!LO:PB:g=original	!	!	!	!
=65	=65	=65	=65	=65
*	*	*^	*	*
!	!	!LO:TUP:a:problem:klamra kwadratowa	!	!	!
4r	.	(12F#/L	4ryy	.	.
.	.	12Dn/	.	.	.
.	.	12BB/J	.	.	.
8GG#X/yy	.	12r	(<8GG#X</)	.	.
.	.	12BB/L	.	.	.
8r	.	.	8ryy	.	.
.	.	12D/J)	.	.	.
!	!	!LO:TX:b:i:t=poco rit.	!	!	!
!	!	!LO:TUP:a:problem:klamra kwadratowa	!	!	!
4r	.	(<12F#/L	4ryy	.	.
.	.	12C#/	.	.	.
.	.	12AA#X/J	.	.	.
*Xtuplet	*	*	*	*	*
!	!	!	!LO:TUP:b:problem:klamra kwadratowa	!	!
!	!	!	!	!	!
12GGn/Lyy	.	4r	12GGn</L	.	.
12FF#/yy	.	.	12FF#</	.	.
12EE/Jyy	.	.	12EE</J)	.	.
*	*	*v	*v	*	*
*	*	*clefG2	*	*
=66	=66	=66	=66	=66
*^	*	*^	*	*
*ped	*	*	*	*	*	*
4r	1FF#	.	4r	4ryy	.	pp
!	!	!	!LO:TX:b:i:t=calando	!	!	!
*Xped	*	*	*	*	*	*
4F#/ 4e	.	.	(8.gg/L	4a#X\	5	.
*	*	*	*	*	*	*
.	.	.	16cc#/Jk	.	2	.
*ped	*	*	*	*	*	*
2G/ 2e	.	.	4ff#/	2b\	1 4	.
.	.	.	4ee/)	.	3	.
*Xped	*	*	*	*	*	*
=67	=67	=67	=67	=67	=67	=67
*ped	*	*	*	*	*	*
4r	1FF#	.	4r	4ryy	.	.
*Xped	*	*	*	*	*	*
4F#/ 4e	.	.	(8.dd/L	4g\	.	.
.	.	.	16a#X/Jk	.	2	.
*ped	*	*	*	*	*	*
2F#/ 2d	.	.	4cc#/	2f#\	1 4	.
.	.	.	4b/)	.	3	.
*Xped	*	*	*	*	*	*
*	*	*	*v	*v	*	*
=68	=68	=68	=68	=68	=68
*ped	*	*	*	*	*
4r	2FF#\	.	4r	.	.
*	*	*	*	*	*
!	!	!	!LO:TX:b:i:t=piu ritard.	!	!
*Xped	*	*	*	*	*
4F#/ 4c#	.	.	4f#/ 4a#X	.	.
*ped	*	*	*	*	*
4r	2FF#\	.	4r	.	.
4E/ 4B	.	.	4c#/ 4g	.	.
*Xped	*	*	*	*	*
=69	=69	=69	=69	=69	=69
*ped	*	*	*	*	*
4r	[2.FF#\	.	4r	.	.
[<2E/ [2A#X	.	.	[2c#/ [2f#	.	.
*Xped	*	*	*	*	*
8E/] 8A#]	8FF#\]	.	8c#/] 8f#]	.	.
8r;	8r	.	8r;	.	.
*v	*v	*	*	*	*
=70||	=70||	=70||	=70||	=70||
!	!	!LO:TX:b:i:t=a tempo	!	!
(4BB/	5	2r	.	p
4C#/	4	.	.	.
4D\	3	(>4B/	1	.
8.E\L	2	4c#/	2	.
16G\Jk	1	.	.	.
=71	=71	=71	=71	=71
4F#\)	2	4d/	1	.
(4C#/	3	8.e/L	2	.
.	.	16g/Jk	4	.
4D\	2	4f#/)	3	.
4E\	1	(>4c#/ 4b	.	.
=72	=72	=72	=72	=72
*	*	*^	*	*
4F#\	3	4a/	8e\L	2 5	.
.	.	.	8d\J	1	.
8.G\L	2	4e/	4c#\	2 3	.
16A\Jk	1	.	.	.	.
8D\)	5	8d/) 8f#	2ryy	1 4	.
8r	.	8r	.	.	.
(4B\	3	(4f#/ 4dd	.	1 4	.
=73	=73	=73	=73	=73	=73
8A#X\L	4	4f#/ 4cc#	4ryy	3	<
8e\	1	.	.	.	.
8d\	2	8.b/L	4f#\	2	.
8B\J	1	.	.	.	.
.	.	16dd/Jk	.	4	.
4A#\	2	4f#^\) 4cc# 4ff#	2ryy	5	.
8G#X\L	3	4r	.	.	[
8A#\J	4	.	.	.	.
*	*	*v	*v	*	*
=74	=74	=74	=74	=74
(4B\)	1	8r	.	mf
.	.	(8dd\L	5	.
4E\)	5	8cc#\	.	.
.	.	8b\J	.	.
(8F#\L	4	2a#X/)	2	.
8G#X\	.	.	.	.
8A#X\	.	.	.	.
8c#\J	1	.	.	.
!!LO:LB:g=original	!	!	!	!
=75	=75	=75	=75	=75
4B\	2	(8g/L	1	.
.	.	8b/	3	.
4C#/)	5	8an/	.	.
.	.	8g/J	.	.
(8D#X\L	4	2f#/)	2	.
8E\	.	.	.	.
8F#\	.	.	.	.
8B\J	1	.	.	.
=76	=76	=76	=76	=76
4G\	2	8e/L	1	.
.	.	8g/	.	.
4AA#X/)	5	8f#/	.	.
.	.	8e/J	.	.
4BB/	4	8d#X/L	2	.
.	.	8f#/	4	.
8C#/L	.	8e/	.	.
8D#X/J	.	8d#/J	2	>
=77	=77	=77	=77	=77
*^	*	*	*	*
4E\	2ryy	1	8c#/L	1	.
.	.	.	8e/	.	.
4FF#/	.	5	8d#X/	.	.
.	.	.	8c#/J	.	.
4r	2GG#X\	4	8B/L	3	.
.	.	.	8A#X/	2	.
4E/	.	1	8B/	1	.
.	.	.	8c#/J	2	]
*v	*v	*	*	*	*
=78	=78	=78	=78	=78
8FF##X/ 8D#X	.	16d#X/LL	.	p
.	.	16dd#X/	.	.
8r	.	16e/	.	.
.	.	16dd#/JJ	.	.
(4d#X\	2	16e#X/LL	.	.
.	.	16dd#/	.	.
.	.	16f#/	2	.
.	.	16dd#/JJ	.	.
8c#\L	3	16f##X/LL	1	<
.	.	16dd#/	.	.
8cn\	1	16g#X/	2	.
.	.	16dd#/JJ	.	.
8B\	2	16a/LL	1	.
.	.	16dd#/	.	.
8A#X\J	3	16a#X/	2	.
.	.	16dd#/JJ	.	[
!!LO:LB:g=original	!	!	!	!
=79	=79	=79	=79	=79
4G#X\)	4	16b\LL	1	.
.	.	16dd#X\	2	.
.	.	16gg#X\	4	.
.	.	16bb\JJ	5	.
4r	.	16aa#X\LL	4	.
.	.	16gg#\	.	>
.	.	16ff#\	.	.
.	.	16ee\JJ	1	.
2r	.	16dd#\LL	3	.
.	.	16cc#\	.	.
.	.	16b\	.	.
.	.	16a#X\JJ	.	.
.	.	16b\LL	1	.
.	.	16cc#\	.	.
.	.	16dd#\	.	.
.	.	16ee\JJ	4	]
=80	=80	=80	=80	=80
(4F#\ 4A#X	3 5	16ff#/LL	5	p
.	.	16f#/	.	.
.	.	16g#X/	.	.
.	.	16a#X/JJ	.	.
4f#\	.	16g#/LL	.	.
.	.	16ff#/	.	.
.	.	16an/	.	.
.	.	16ff#/JJ	.	.
8e\L	2	16a#X\LL	2	.
.	.	16ff#\	.	.
8d#X\	3	16b\	1	.
.	.	16ff#\JJ	.	.
8dn\	1	16b#X\LL	1	.
.	.	16ff#\	.	.
8c#\J	2	16cc#\	2	.
.	.	16ff#\JJ	.	.
=81	=81	=81	=81	=81
4B\)	3	16dd#X\LL	1	.
.	.	16ff#\	2	.
.	.	16bb\	4	.
.	.	16ddd#X\JJ	5	.
4r	.	16ccc#\LL	4	.
.	.	16bb\	3	.
.	.	16aa#X\	2	>
.	.	16gg#X\JJ	1	.
2r	.	16ff#\LL	2	.
.	.	16ee\	1	.
.	.	16dd#\	3	.
.	.	16cc#\JJ	2	.
.	.	16b/LL	1	.
.	.	16a#X/	3	.
.	.	16g#X/	2	.
.	.	16a#/JJ	3	]
!!LO:LB:g=original	!	!	!	!
=82	=82	=82	=82	=82
8F#\L	.	(4f#/	1	.
8e#X\	.	.	.	.
!	!	!LO:TX:b:i:t=rall.	!	!
8F#\	.	4g#X/	2	.
8en\J	.	.	.	.
8F#\L	.	4a#X/	3	.
8d#X\	.	.	.	.
8F#\	.	8.b\L	1	.
8c#\J	.	.	.	.
.	.	16cc#\Jk	2	.
=83||	=83||	=83||	=83||	=83||
*k[f#c#g#d#a#]	*	*k[f#c#g#d#a#]	*	*
!	!	!LO:TX:a:i:t=espressivo	!	!
!	!	!LO:TX:b:i:t=a tempo	!	!
8BB\L	.	4dd#\	3	p
8B\	.	.	.	.
8BB\	.	4dd#\	2	.
8A#\J	.	.	.	.
8BB\L	.	16ee\LL	3	.
.	.	16ff#\	.	.
8G#\	.	16ee\	.	.
.	.	16dd#\JJ	.	.
8BB\	.	16ee\LL	1	.
.	.	16ff#\	.	.
8F#\J	.	16gg#\	.	.
.	.	16aa#\JJ	4	.
=84	=84	=84	=84	=84
8BB/L	5	4bb\	5	.
8E/	2	.	.	.
8D#/	.	4ff#\)	2	.
8C#/J	.	.	.	.
8BB\L	5	16r	.	<
.	.	(16f#\LL	2	.
8D#\	3	16b\	1	.
.	.	16cc#\JJ	2	.
8F#\	2	16dd#\LL	3	.
.	.	16ff#\	4	.
8B\J	1	16gg#\	5	.
.	.	16ff#\JJ	4	[
=85	=85	=85	=85	=85
8BB\L	5	4ee\	3	>
8G#\	1	.	.	.
8E\	2	4cc#\)	2	]
8G#\J	.	.	.	.
8BB\L	5	16r	.	.
.	.	(16f#/LL	2	<
8E\	3	16a#/	1	.
.	.	16cc#/JJ	2	.
8F#\	2	16dd#\LL	3	.
.	.	16ee\	4	.
8A#\J	1	16ff#\	5	.
.	.	16ee\JJ	4	[
!!LO:LB:g=original	!	!	!	!
=86	=86	=86	=86	=86
8BB\L	5	4dd#\	3	>
8D#\	.	.	.	.
8F#\	.	4b\)	1	]
8B\J	.	.	.	.
8Gn\L	2	(8ee\L	1	<
8F#\	3	8ff#\	.	.
8E\	4	8ggn\	.	.
8Dn\J	1	8aan\J	4	[
=87	=87	=87	=87	=87
8GGn/L	5	4bb\	5	.
8AAn/	4	.	.	.
8BB/	3	8.ggn\L	1	.
8Dn/J	2	.	.	.
.	.	16bb\Jk	2	.
8E\L	1	8dddn\L	4	.
8F#\	3	8cccn\	.	.
8An\	2	8aan\	1	.
8cn\J	1	8ff#\J	2	.
=88	=88	=88	=88	=88
8Gn\L	5	4bb\)	5	.
8dn\	.	.	.	.
8c#X\	.	(8.ggn\L	1	.
8d\J	.	.	.	.
.	.	16bb\Jk	.	.
8F#\L	5	8bb\L	5	.
8c#\	1	8aa#X\	4	.
!	!	!LO:SIC:s=8ggn\:t=kasownik w nawiasie	!	!
8B\	.	8ggn\	2	.
8A#X\J	3	8ee\J	1	.
=89	=89	=89	=89	=89
*	*	*^	*	*
8B\L	1	4.dd#/	8dd#\L)	3	>
8A#\	.	.	8cc#\	2	.
8G#X\	.	.	8b\	1	.
8F#\J	4	(8dd#/	8a#\J	2 3	.
4E\	5	8ff#/L	4g#\	5	.
.	.	8ee/	.	4	.
4F#\	.	8dd#/	4a#\	1 3	.
.	.	8cc#/J	.	2	.
*	*	*v	*v	*	*
=90	=90	=90	=90	=90
(4B\	1	((2e/) 2cc#	5	.
4F#\	2	.	.	.
4BB/)	5	4d#/)) 4b	4	]]
4r	.	4r	.	.
*	*	*clefF4	*	*
!!LO:PB:g=original	!	!	!	!
=91	=91	=91	=91	=91
4GGn/ 4Dn	4	4Gn\ 4B	1 2	mf
8.GG/L 8.D	.	8.G\L 8.B	.	.
16GG/Jk 16D	.	16G\Jk 16B	.	.
4FF#/ 4D	5	4An\ 4dn	2 5	.
4r	.	4r	.	.
=92	=92	=92	=92	=92
4FF#/ 4E	.	4F#\ 4A#X	1 3	.
8.FF#/L 8.E	.	8.F#\L 8.A#	.	.
16FF#/Jk 16E	.	16F#\Jk 16A#	.	.
2BB/ 2D#X	2 3	2F#\ 2B	4	.
=93	=93	=93	=93	=93
4GGn/ 4Dn	5	4Gn\ 4B	.	<
8.GG/L 8.D	.	8.Fn\L 8.B	.	.
16GG/Jk 16D	.	16F\Jk 16B	.	.
4GG#X/ 4D	4	4E\ 4e	.	.
4r	.	4r	.	[
=94	=94	=94	=94	=94
4AAn/ 4Dn	1 4	4An\ 4f#	.	>
8.AA/L 8.C#	2 3	8.Gn\L 8.e	.	.
16AA/Jk 16C#	.	16G\Jk 16e	.	.
2DDn/ 2Dn	.	2F#\ 2dn	.	]
*	*	*clefG2	*	*
=95	=95	=95	=95	=95
4Gn\ 4dn	4	4gn/ 4b	1 3	pp
8.G\L 8.d	.	8.g/L 8.b	.	.
16G\Jk 16d	.	16g/Jk 16b	.	.
4F#\ 4d	5	4an\ 4ddn	2 5	.
4r	.	4r	.	.
!!LO:LB:g=original	!	!	!	!
=96	=96	=96	=96	=96
4F#\ 4e	.	4f#/ 4a#X	1 3	.
8.F#\L 8.e	.	8.f#/L 8.a#	.	.
16F#\Jk 16e	.	16f#/Jk 16a#	.	.
2B\ 2d#X	2 3	2f#/ 2b	4	.
=97	=97	=97	=97	=97
4G#\ 4d#	4	4g#/ 4b	1 3	<
8.G#\L 8.d#	.	8.g#/L 8.b	.	.
16G#\Jk 16d#	.	16g#/Jk 16b	.	.
4F##X\ 4d#	5	4a#\ 4dd#	2 5	[
4r	.	4r	.	.
=98	=98	=98	=98	=98
!LO:N:n=1:acc=n# 	!	!	!	!
4F#X\ 4d#	.	4f#\ 4b 4ff#	.	>
8.F#\L 8.e	.	8.f#/L 8.a# 8.dd#	.	.
16F#\Jk 16e	.	16f#/Jk 16a# 16cc#	.	.
2B\ 2d#	.	2f#/ 2b	.	]
=99	=99	=99	=99	=99
[4BB\ [4B	.	[4d#/ [4f#	.	pp
8BB\] 8B]	.	8d#/] 8f#]	.	.
8r	.	8r	.	.
[4FF#/ [4F#	.	[4B/ [4d#	.	.
8FF#/] 8F#]	.	8B/] 8d#]	.	.
8r	.	8r	.	.
*	*	*clefF4	*	*
=100	=100	=100	=100	=100
1BBB; 1BB	.	1D#; 1F# 1B	.	pp
==	==	==	==	==
*-	*-	*-	*-	*-
!!!system-decoration: {(s1,s2)}
!!!RDF**kern: > = above
!!!RDF**kern: < = below
!!!RDF**kern: N = linked
!!!ENC: Anastazja Marusiak
!!!END: 2023-10-10
!!!EED: Jan Barakat
!!!EEV: 2023-10-23
